Obsidian-SemiLight/actions/22s/irc-voice.svg

<svg viewBox="0 0 22 22" xmlns="http://www.w3.org/2000/svg"><path d="m15 4-12 3.4179688v1.0429687 4.5390625.582031l1 .285157v2.132812.300781l6 1.699219v-1-1.423828l5 1.423828v-1.042969-10.9140622zm4.029297.4277344-.771485.6308594c1.13726 1.77224 1.741928 3.8337031 1.742188 5.9394532-.004 2.10388-.61142 4.16247-1.75 5.931641l.783203.642578c1.28155-1.95324 1.965107-4.238079 1.966797-6.574219-.004-2.3352001-.688503-4.6186226-1.970703-6.5703126zm-5.029297.9003906v10.34375l-10-2.847656v-4.6484378zm2.689453 1.015625-.78125.6386719c.71179 1.21879 1.088467 2.604205 1.091797 4.0156251-.002 1.4119-.378404 2.798018-1.089844 4.017578l.78125.640625c.85323-1.40417 1.305784-3.015133 1.308594-4.658203-.004-1.6419301-.457317-3.251457-1.310547-4.654297zm-14.689453 1.359375-1 .2851562v.0117188 1 3 1 .011719l1 .285156v-.296875-.746094-3.5078122-.7460938zm3 6.449219 4 1.138672v1.425781l-4-1.132813z" fill="#4d4d4d"/></svg>

<svg xmlns="http://www.w3.org/2000/svg" viewBox="0 0 22 22">
  <defs id="defs3051">
    <style type="text/css" id="current-color-scheme">
      .ColorScheme-Text {
        color:#4d4d4d;
      }
      </style>
  </defs>
 <path 
     style="fill:currentColor;fill-opacity:1;stroke:none" 
     d="M 15 4 L 3 7.4179688 L 3 8.4609375 L 3 13 L 3 13.582031 L 4 13.867188 L 4 16 L 4 16.300781 L 10 18 L 10 17 L 10 15.576172 L 15 17 L 15 15.957031 L 15 5.0429688 L 15 4 z M 19.029297 4.4277344 L 18.257812 5.0585938 C 19.395072 6.8308338 19.99974 8.8922969 20 10.998047 C 19.996 13.101927 19.38858 15.160517 18.25 16.929688 L 19.033203 17.572266 C 20.314753 15.619026 20.99831 13.334187 21 10.998047 C 20.996 8.6628469 20.311497 6.3794244 19.029297 4.4277344 z M 14 5.328125 L 14 15.671875 L 4 12.824219 L 4 8.1757812 L 14 5.328125 z M 16.689453 6.34375 L 15.908203 6.9824219 C 16.619993 8.2012119 16.99667 9.5866269 17 10.998047 C 16.998 12.409947 16.621596 13.796065 15.910156 15.015625 L 16.691406 15.65625 C 17.544636 14.25208 17.99719 12.641117 18 10.998047 C 17.996 9.3561169 17.542683 7.74659 16.689453 6.34375 z M 2 7.703125 L 1 7.9882812 L 1 8 L 1 9 L 1 12 L 1 13 L 1 13.011719 L 2 13.296875 L 2 13 L 2 12.253906 L 2 8.7460938 L 2 8 L 2 7.703125 z M 5 14.152344 L 9 15.291016 L 9 16.716797 L 5 15.583984 L 5 14.152344 z "
     class="ColorScheme-Text"
     />
</svg>
